X: 42377
T: Well, Fancy That!
R: reel
M: 4/4
K: Gmajor
|:Adde fdec|Addc AGEG|Adde fd^cd|efgf ed^ce|
adde dcAG|AdcA GEFG|AGAB cded|1 cAGE D3G:|2 cAGE D2FA||
|:d^cde fdAd|cBcd cGAc|dcd=f ecBc|cAGE cEGE|
DAde fedc|AcGc AGEG|ADDE FEFG|1 AFGE D2A/B/c:|2 AFGE D4||

